X:1
T:Title
%%score { ( 1 3 ) | 2 }
L:1/8
M:6/8
K:D
V:1 treble nm="Grand Piano"
V:3 treble 
V:2 bass 
V:1
 z3 z2[Q:1/4=90] [DF] | [FA]2 [FA] [Fd]2 F | E2 G [GB]2 [Gd] | c2 B A2 G | %4
[M:5/8] [GB]2 [FA] [DF]2 |[M:1/8] [EG] |[M:3/4] [FA]2 [FA] [Fd]2 F | E2 E [EA]2 [Ec] | %8
 [Ee]2 [Fd] [DB]2 [Ec] |[M:5/8] [A,CA]-[A,CA]- [A,CA]3 |[M:1/8] A |[M:3/4] [Fd]2 [Fc] [Fe]2 [Fd] | %12
 [Gd]2 [Gc] [Gc]2 G | c2 B B2 G |[M:5/8] [GB]2 [FA] [FA]2 |[M:1/8] [FA] | %16
[M:3/4] [Fd]2 [Gc] [Ae]2 [Ad] | [Ac]2 B B2 B | A6 | [^Ge]3 [=Gc]3 |[M:5/8] [Fd]-[Fd]- [Fd]3 |] %21
V:2
 z3 z2 [D,A,] | [D,D]2 [D,D] [D,A,]2 [F,A,D] | [G,B,D]2 [G,B,D] [E,B,]2 [E,B,] | %3
 [A,G]2 [A,CG] [A,CF]2[K:bass] [A,CE] |[M:5/8] [D,D]2 [D,D] [D,A,]2 |[M:1/8] [D,A,] | %6
[M:3/4] [D,D]2 [D,D] [D,A,]2 [D,A,D] | [E,A,C]2 [E,A,C] [C,A,]2 [A,,A,] | %8
 [C,A,]2 [D,A,] [E,^G,]2 [E,G,] |[M:5/8] A,,-A,,- A,,3 |[M:1/8] A, | %11
[M:3/4] [D,A,]2 [D,A,] [D,A,]2 [D,A,] | [E,A,]2 [E,A,] [E,A,]2[K:treble] [A,C] | %13
 [A,EG]2 [A,DG] [A,DG]2 [A,CE] |[M:5/8][K:bass] [D,D]2 [D,D] [D,D]2 |[M:1/8] [D,D] | %16
[M:3/4] [D,A,]2 [E,A,] [F,D]2 [F,D] | [G,D]2 [G,DG] .[G,DG]3 | z2[K:bass] [G,C] [F,A,]2 [F,D] | %19
 [E,D]3 [A,E]3 |[M:5/8] [D,D]-[D,D]- [D,D]3 |] %21
V:3
 x6 | x6 | x6 | x6 |[M:5/8] x5 |[M:1/8] x |[M:3/4] x6 | x6 | x6 |[M:5/8] x5 |[M:1/8] x | %11
[M:3/4] x6 | x6 | x6 |[M:5/8] x5 |[M:1/8] x |[M:3/4] x6 | x6 | z2 E D2 [Ad] | x6 |[M:5/8] x5 |] %21

